public/images/icons/thermometer-25-small.svg

<svg width="16" height="37" viewBox="0 0 16 37" xmlns="http://www.w3.org/2000/svg"><title>Shape</title><path d="M8 36.865c-4.418 0-7.998-3.58-7.998-7.998 0-2.025.758-3.87 2-5.28V6.87c0-3.313 2.686-6 5.998-6 3.314 0 6 2.687 6 6v16.718c1.24 1.41 2 3.254 2 5.28 0 4.417-3.582 7.997-8 7.997zm2-11.443V6.87c0-1.104-.895-2-2-2-1.104 0-2 .896-2 2v18.552c-1.19.693-1.998 1.97-1.998 3.445 0 2.21 1.79 3.998 3.998 3.998 2.21 0 4-1.79 4-3.998 0-1.476-.81-2.752-2-3.445zm-2 6.445c-1.656 0-2.998-1.344-2.998-3 0-1.305.836-2.402 1.998-2.816v-5.183h2v5.184c1.162.415 2 1.513 2 2.817 0 1.656-1.344 3-3 3z" fill-rule="nonzero" fill="#000"/></svg>

<?xml version="1.0" encoding="UTF-8"?>
<svg width="16px" height="37px" viewBox="0 0 16 37" version="1.1" xmlns="http://www.w3.org/2000/svg" xmlns:xlink="http://www.w3.org/1999/xlink">
    <!-- Generator: Sketch 43.2 (39069) - http://www.bohemiancoding.com/sketch -->
    <title>Shape</title>
    <desc>Created with Sketch.</desc>
    <defs></defs>
    <g id="Page-1" stroke="none" stroke-width="1" fill="none" fill-rule="evenodd">
        <g id="Thermometer-25" fill-rule="nonzero" fill="#000000">
            <path d="M8,36.865 C3.582,36.865 0.002,33.285 0.002,28.867 C0.002,26.842 0.76,24.998 2.002,23.588 L2.002,6.87 C2.002,3.557 4.688,0.871 8,0.871 C11.314,0.871 14,3.557 14,6.87 L14,23.588 C15.24,24.998 16,26.842 16,28.867 C16,33.285 12.418,36.865 8,36.865 Z M10,25.422 L10,21.129 L10,10.869 L10,6.87 C10,5.766 9.105,4.87 8,4.87 C6.896,4.87 6,5.766 6,6.87 L6,10.869 L6,21.129 L6,25.422 C4.811,26.115 4.002,27.391 4.002,28.867 C4.002,31.076 5.791,32.865 8,32.865 C10.209,32.865 12,31.076 12,28.867 C12,27.391 11.191,26.115 10,25.422 Z M8,31.867 C6.344,31.867 5.002,30.523 5.002,28.867 C5.002,27.562 5.838,26.465 7,26.051 L7,20.867 L9,20.867 L9,26.051 C10.162,26.465 11,27.563 11,28.867 C11,30.523 9.656,31.867 8,31.867 Z" id="Shape"></path>
        </g>
    </g>
</svg>
